src/pdp/components/img/voucherImg.svg

<svg height="25" viewBox="0 0 25 25" width="25" xmlns="http://www.w3.org/2000/svg"><g fill="none" fill-rule="evenodd" transform="translate(1 6)"><path d="m22.2580703.01594727h-17.06451757v.37096484c0 .20506836-.1659414.37096484-.37096484.37096484-.20506836 0-.37096484-.1659414-.37096484-.37096484v-.37096484h-3.70969336c-.40973242 0-.74192969.33215234-.74192969.74192968v3.26568555c0 .18700977.09195508.3647207.25097852.46309961.73936914.45730469 1.23288085 1.27340039 1.23288085 2.20669726 0 .93325196-.49351171 1.74939258-1.23288085 2.20669727-.15902344.09837891-.25097852.27613477-.25097852.46309961v3.26568555c0 .4097324.33219727.7419297.74192969.7419297h3.70969336v-.3709649c0-.2050683.1659414-.3709648.37096484-.3709648.20506836 0 .37096484.1659414.37096484.3709648v.3709649h17.06451757c.4097324 0 .7419297-.3321973.7419297-.7419297v-11.87096485c0-.40977734-.3321973-.74192968-.7419297-.74192968zm-17.03978059 11.50000003c0 .2050683-.17147412.3709648-.38333333.3709648-.21190563 0-.38333333-.1659414-.38333333-.3709648v-.7419297c0-.2050684.17147412-.3709649.38333333-.3709649.21190563 0 .38333333.1659414.38333333.3709649zm0-2.22583402c0 .20506836-.17147412.37096484-.38333333.37096484-.21190563 0-.38333333-.1659414-.38333333-.37096484v-.74192969c0-.20506836.17147412-.37096484.38333333-.37096484.21190563 0 .38333333.16594141.38333333.37096484zm0-2.22578906c0 .20506836-.17147412.37096484-.38333333.37096484-.21190563 0-.38333333-.1659414-.38333333-.37096484v-.74192969c0-.20506836.17147412-.37096484.38333333-.37096484.21190563 0 .38333333.1659414.38333333.37096484zm0-2.22578906c0 .20506836-.17147412.37096484-.38333333.37096484-.21190563 0-.38333333-.16594141-.38333333-.37096484v-.74192969c0-.20506836.17147412-.37096485.38333333-.37096485.21190563 0 .38333333.16594141.38333333.37096485zm0-2.22583399c0 .20506836-.17147412.37096485-.38333333.37096485-.21190563 0-.38333333-.16594141-.38333333-.37096485v-.74192969c0-.20506836.17147412-.37096484.38333333-.37096484.21190563 0 .38333333.16594141.38333333.37096484z" fill="#ffc350" fill-rule="nonzero"/><path d="m21.8871055 12.6288418h-15.58065823c-.20488868 0-.37096485-.1660762-.37096485-.3709648v-11.1290352c0-.20488867.16607617-.37096485.37096485-.37096485h15.58065823c.2048886 0 .3709648.16607618.3709648.37096485v11.1290352c0 .2048886-.1660762.3709648-.3709648.3709648z" fill="#ffd164"/><path d="m13.7898477 9.25696094-1.922836 1.20714066c-.423748.2660273-.9555332-.1203008-.8334804-.60554691l.5538867-2.20175586-1.74225003-1.45569336c-.38399219-.32083203-.18085547-.94596484.31836133-.97979102l2.2651406-.15358789.8460586-2.10683594c.1864707-.4643125.8437676-.4643125 1.0302383 0l.8460586 2.10683594 2.2651406.15358789c.4992168.0338711.7023535.65900391.3183613.97979102l-1.74225 1.45569336.5538868 2.20175586c.1220527.48524611-.4096875.87161911-.8334805.60554691z" fill="#fff"/><path d="m16.3048437 8.89951758c-2.4038144-.14693946-4.44183-1.63493164-5.3731054-3.73026758l-.768209.05206445c-.4992168.0338711-.70235352.65900391-.31836133.97979102l1.74225003 1.45569336-.5539317 2.20175586c-.1220527.48524611.4096875.87157421.8334805.60554691l1.9228359-1.20714066 1.922791 1.20714066c.4237481.2660273.9555333-.1203008.8334356-.60554691z" fill="#fff6d8"/></g></svg>

<svg width="25px" height="25px" viewBox="0 0 25 25" version="1.1" xmlns="http://www.w3.org/2000/svg" xmlns:xlink="http://www.w3.org/1999/xlink">
    <!-- Generator: Sketch 52.3 (67297) - http://www.bohemiancoding.com/sketch -->
    <title>coupon</title>
    <desc>Created with Sketch.</desc>
    <g id="coupon" stroke="none" stroke-width="1" fill="none" fill-rule="evenodd">
        <g transform="translate(1.000000, 6.000000)">
            <path d="M22.2580703,0.0159472656 L5.19355273,0.0159472656 L5.19355273,0.386912109 C5.19355273,0.591980469 5.02761133,0.757876953 4.82258789,0.757876953 C4.61751953,0.757876953 4.45162305,0.591935547 4.45162305,0.386912109 L4.45162305,0.0159472656 L0.741929687,0.0159472656 C0.332197266,0.0159472656 0,0.348099609 0,0.757876953 L0,4.0235625 C0,4.21057227 0.0919550781,4.3882832 0.250978516,4.48666211 C0.990347656,4.9439668 1.48385937,5.7600625 1.48385937,6.69335937 C1.48385937,7.62661133 0.990347656,8.44275195 0.250978516,8.90005664 C0.0919550781,8.99843555 0,9.17619141 0,9.36315625 L0,12.6288418 C0,13.0385742 0.332197266,13.3707715 0.741929687,13.3707715 L4.45162305,13.3707715 L4.45162305,12.9998066 C4.45162305,12.7947383 4.61756445,12.6288418 4.82258789,12.6288418 C5.02765625,12.6288418 5.19355273,12.7947832 5.19355273,12.9998066 L5.19355273,13.3707715 L22.2580703,13.3707715 C22.6678027,13.3707715 23,13.0385742 23,12.6288418 L23,0.757876953 C23,0.348099609 22.6678027,0.0159472656 22.2580703,0.0159472656 Z M5.21828971,11.5159473 C5.21828971,11.7210156 5.04681559,11.8869121 4.83495638,11.8869121 C4.62305075,11.8869121 4.45162305,11.7209707 4.45162305,11.5159473 L4.45162305,10.7740176 C4.45162305,10.5689492 4.62309717,10.4030527 4.83495638,10.4030527 C5.04686201,10.4030527 5.21828971,10.5689941 5.21828971,10.7740176 L5.21828971,11.5159473 Z M5.21828971,9.29011328 C5.21828971,9.49518164 5.04681559,9.66107812 4.83495638,9.66107812 C4.62305075,9.66107812 4.45162305,9.49513672 4.45162305,9.29011328 L4.45162305,8.54818359 C4.45162305,8.34311523 4.62309717,8.17721875 4.83495638,8.17721875 C5.04686201,8.17721875 5.21828971,8.34316016 5.21828971,8.54818359 L5.21828971,9.29011328 Z M5.21828971,7.06432422 C5.21828971,7.26939258 5.04681559,7.43528906 4.83495638,7.43528906 C4.62305075,7.43528906 4.45162305,7.26934766 4.45162305,7.06432422 L4.45162305,6.32239453 C4.45162305,6.11732617 4.62309717,5.95142969 4.83495638,5.95142969 C5.04686201,5.95142969 5.21828971,6.11737109 5.21828971,6.32239453 L5.21828971,7.06432422 Z M5.21828971,4.83853516 C5.21828971,5.04360352 5.04681559,5.2095 4.83495638,5.2095 C4.62305075,5.2095 4.45162305,5.04355859 4.45162305,4.83853516 L4.45162305,4.09660547 C4.45162305,3.89153711 4.62309717,3.72564062 4.83495638,3.72564062 C5.04686201,3.72564062 5.21828971,3.89158203 5.21828971,4.09660547 L5.21828971,4.83853516 Z M5.21828971,2.61270117 C5.21828971,2.81776953 5.04681559,2.98366602 4.83495638,2.98366602 C4.62305075,2.98366602 4.45162305,2.81772461 4.45162305,2.61270117 L4.45162305,1.87077148 C4.45162305,1.66570312 4.62309717,1.49980664 4.83495638,1.49980664 C5.04686201,1.49980664 5.21828971,1.66574805 5.21828971,1.87077148 L5.21828971,2.61270117 Z" id="Shape" fill="#FFC350" fill-rule="nonzero"></path>
            <path d="M21.8871055,12.6288418 L6.30644727,12.6288418 C6.10155859,12.6288418 5.93548242,12.4627656 5.93548242,12.257877 L5.93548242,1.1288418 C5.93548242,0.923953125 6.10155859,0.757876953 6.30644727,0.757876953 L21.8871055,0.757876953 C22.0919941,0.757876953 22.2580703,0.923953125 22.2580703,1.1288418 L22.2580703,12.257877 C22.2580703,12.4627656 22.0919941,12.6288418 21.8871055,12.6288418 Z" id="Path" fill="#FFD164"></path>
            <path d="M13.7898477,9.25696094 L11.8670117,10.4641016 C11.4432637,10.7301289 10.9114785,10.3438008 11.0335313,9.85855469 L11.587418,7.65679883 L9.84516797,6.20110547 C9.46117578,5.88027344 9.6643125,5.25514063 10.1635293,5.22131445 L12.4286699,5.06772656 L13.2747285,2.96089062 C13.4611992,2.49657812 14.1184961,2.49657812 14.3049668,2.96089062 L15.1510254,5.06772656 L17.416166,5.22131445 C17.9153828,5.25518555 18.1185195,5.88031836 17.7345273,6.20110547 L15.9922773,7.65679883 L16.5461641,9.85855469 C16.6682168,10.3438008 16.1364766,10.7301738 15.7126836,10.4641016 L13.7898477,9.25696094 Z" id="Path" fill="#FFFFFF"></path>
            <path d="M16.3048437,8.89951758 C13.9010293,8.75257812 11.8630137,7.26458594 10.9317383,5.16925 L10.1635293,5.22131445 C9.6643125,5.25518555 9.46117578,5.88031836 9.84516797,6.20110547 L11.587418,7.65679883 L11.0334863,9.85855469 C10.9114336,10.3438008 11.4431738,10.7301289 11.8669668,10.4641016 L13.7898027,9.25696094 L15.7125937,10.4641016 C16.1363418,10.7301289 16.668127,10.3438008 16.5460293,9.85855469 L16.3048437,8.89951758 Z" id="Path" fill="#FFF6D8"></path>
        </g>
    </g>
</svg>
